resources/svg/faders-horizontal-thin.svg

<svg xmlns="http://www.w3.org/2000/svg" viewBox="0 0 256 256" fill="currentColor"><path d="M139.999,171.99353a4.00019,4.00019,0,0,1-4,4h-96a4,4,0,0,1,0-8h96A4.0002,4.0002,0,0,1,139.999,171.99353Zm76-4h-44v-20a4,4,0,0,0-8,0v48a4,4,0,0,0,8,0v-20h44a4,4,0,0,0,0-8Zm-176-80.001,32,.001h0a4,4,0,0,0,0-8l-32-.001h0a4,4,0,0,0,0,8Zm64,24.001a4.00019,4.00019,0,0,0,4-4v-20l108-.001a4,4,0,1,0,0-8l-108,.001v-20a4,4,0,1,0-8,0v48A4.0002,4.0002,0,0,0,103.999,111.99353Z"/></svg>

<svg xmlns="http://www.w3.org/2000/svg" viewBox="0 0 256 256" fill="currentColor"><path d="M140,172a4,4,0,0,1-4,4H40a4,4,0,0,1,0-8h96A4,4,0,0,1,140,172Zm76-4H172V148a4,4,0,0,0-8,0v48a4,4,0,0,0,8,0V176h44a4,4,0,0,0,0-8ZM40,88H72a4,4,0,0,0,0-8H40a4,4,0,0,0,0,8Zm64,24a4,4,0,0,0,4-4V88H216a4,4,0,0,0,0-8H108V60a4,4,0,0,0-8,0v48A4,4,0,0,0,104,112Z"/></svg>
